img/logo/DevMANU-black.svg

<svg width="110" height="16" viewBox="0 0 110 16" fill="none" xmlns="http://www.w3.org/2000/svg">
<path d="M0.743 0.299999H7.421C9.017 0.299999 10.424 0.607999 11.642 1.224C12.874 1.826 13.826 2.68 14.498 3.786C15.184 4.892 15.527 6.18 15.527 7.65C15.527 9.12 15.184 10.408 14.498 11.514C13.826 12.62 12.874 13.481 11.642 14.097C10.424 14.699 9.017 15 7.421 15H0.743V0.299999ZM7.253 12.207C8.723 12.207 9.892 11.801 10.76 10.989C11.642 10.163 12.083 9.05 12.083 7.65C12.083 6.25 11.642 5.144 10.76 4.332C9.892 3.506 8.723 3.093 7.253 3.093H4.145V12.207H7.253ZM28.9286 9.393C28.9286 9.435 28.9076 9.729 28.8656 10.275H20.3186C20.4726 10.975 20.8366 11.528 21.4106 11.934C21.9846 12.34 22.6986 12.543 23.5526 12.543C24.1406 12.543 24.6586 12.459 25.1066 12.291C25.5686 12.109 25.9956 11.829 26.3876 11.451L28.1306 13.341C27.0666 14.559 25.5126 15.168 23.4686 15.168C22.1946 15.168 21.0676 14.923 20.0876 14.433C19.1076 13.929 18.3516 13.236 17.8196 12.354C17.2876 11.472 17.0216 10.471 17.0216 9.351C17.0216 8.245 17.2806 7.251 17.7986 6.369C18.3306 5.473 19.0516 4.78 19.9616 4.29C20.8856 3.786 21.9146 3.534 23.0486 3.534C24.1546 3.534 25.1556 3.772 26.0516 4.248C26.9476 4.724 27.6476 5.41 28.1516 6.306C28.6696 7.188 28.9286 8.217 28.9286 9.393ZM23.0696 6.012C22.3276 6.012 21.7046 6.222 21.2006 6.642C20.6966 7.062 20.3886 7.636 20.2766 8.364H25.8416C25.7296 7.65 25.4216 7.083 24.9176 6.663C24.4136 6.229 23.7976 6.012 23.0696 6.012ZM42.1186 3.702L37.3516 15H33.9706L29.2246 3.702H32.6056L35.7346 11.388L38.9686 3.702H42.1186ZM57.0634 15L57.0424 6.18L52.7164 13.446H51.1834L46.8784 6.369V15H43.6864V0.299999H46.5004L52.0024 9.435L57.4204 0.299999H60.2134L60.2554 15H57.0634ZM73.424 11.85H66.599L65.297 15H61.811L68.363 0.299999H71.723L78.296 15H74.726L73.424 11.85ZM72.353 9.267L70.022 3.639L67.691 9.267H72.353ZM93.3031 0.299999V15H90.5101L83.1811 6.075V15H79.8211V0.299999H82.6351L89.9431 9.225V0.299999H93.3031ZM103.312 15.252C101.212 15.252 99.5741 14.671 98.3981 13.509C97.2361 12.347 96.6551 10.688 96.6551 8.532V0.299999H100.057V8.406C100.057 11.038 101.149 12.354 103.333 12.354C104.397 12.354 105.209 12.039 105.769 11.409C106.329 10.765 106.609 9.764 106.609 8.406V0.299999H109.969V8.532C109.969 10.688 109.381 12.347 108.205 13.509C107.043 14.671 105.412 15.252 103.312 15.252Z" fill="#494E52"/>
</svg>

<svg width="110" height="16" fill="none" xmlns="http://www.w3.org/2000/svg"><path d="M.743.3h6.678c1.596 0 3.003.308 4.221.924 1.232.602 2.184 1.456 2.856 2.562.686 1.106 1.029 2.394 1.029 3.864 0 1.47-.343 2.758-1.029 3.864-.672 1.106-1.624 1.967-2.856 2.583-1.218.602-2.625.903-4.221.903H.743V.3zm6.51 11.907c1.47 0 2.639-.406 3.507-1.218.882-.826 1.323-1.939 1.323-3.339s-.441-2.506-1.323-3.318c-.868-.826-2.037-1.239-3.507-1.239H4.145v9.114h3.108zm21.676-2.814c0 .042-.021.336-.063.882h-8.547c.154.7.518 1.253 1.092 1.659.574.406 1.288.609 2.142.609.588 0 1.106-.084 1.554-.252a3.902 3.902 0 001.28-.84l1.744 1.89c-1.064 1.218-2.618 1.827-4.662 1.827-1.274 0-2.401-.245-3.381-.735-.98-.504-1.736-1.197-2.268-2.079-.532-.882-.798-1.883-.798-3.003 0-1.106.259-2.1.777-2.982a5.513 5.513 0 012.163-2.079c.924-.504 1.953-.756 3.087-.756 1.106 0 2.107.238 3.003.714a5.125 5.125 0 012.1 2.058c.518.882.777 1.911.777 3.087zm-5.86-3.381c-.741 0-1.364.21-1.868.63-.504.42-.812.994-.924 1.722h5.565c-.112-.714-.42-1.281-.924-1.701-.504-.434-1.12-.651-1.848-.651zm19.05-2.31L37.352 15H33.97L29.225 3.702h3.38l3.13 7.686 3.234-7.686h3.15zM57.063 15l-.02-8.82-4.327 7.266h-1.533l-4.305-7.077V15h-3.192V.3H46.5l5.502 9.135L57.42.3h2.793l.042 14.7h-3.192zm16.361-3.15h-6.825L65.297 15h-3.486L68.363.3h3.36L78.296 15h-3.57l-1.302-3.15zm-1.071-2.583l-2.331-5.628-2.331 5.628h4.662zM93.303.3V15H90.51l-7.329-8.925V15h-3.36V.3h2.814l7.308 8.925V.3h3.36zm10.009 14.952c-2.1 0-3.738-.581-4.914-1.743-1.162-1.162-1.743-2.821-1.743-4.977V.3h3.402v8.106c0 2.632 1.092 3.948 3.276 3.948 1.064 0 1.876-.315 2.436-.945.56-.644.84-1.645.84-3.003V.3h3.36v8.232c0 2.156-.588 3.815-1.764 4.977-1.162 1.162-2.793 1.743-4.893 1.743z" fill="#494E52"/></svg>
